packages/sources/icons/src/vitamix/file-line.svg

<svg width="16" height="16" viewBox="0 0 16 16" fill="none" xmlns="http://www.w3.org/2000/svg">
<path fill-rule="evenodd" clip-rule="evenodd" d="M14 13.9953V5.33333L9.998 1.33333H2.668C2.29933 1.33333 2 1.63667 2 1.99467V14.0053C2.00037 14.3707 2.29665 14.6667 2.662 14.6667H13.338C13.5148 14.6654 13.6839 14.594 13.808 14.4681C13.9322 14.3422 14.0012 14.1721 14 13.9953ZM9.33333 6H12.6667V13.3333H3.33333V2.66667H9.33333V6Z" fill="#001018"/>
</svg>

<svg width="16" height="16" fill="none" xmlns="http://www.w3.org/2000/svg"><path fill-rule="evenodd" clip-rule="evenodd" d="M14 13.995V5.333l-4.002-4h-7.33A.67.67 0 0 0 2 1.995v12.01c0 .366.297.662.662.662h10.676a.667.667 0 0 0 .662-.672zM9.333 6h3.334v7.333H3.333V2.667h6V6z" fill="#001018"/></svg>
